X: 2219
T: TO DAUNTON ME
Q: "Highland Schottische."
R: Schottishe.
%R: shottish
B: James Kerr "Merry Melodies" v.2 p.24 #219
Z: 2016 John Chambers <jc:trillian.mit.edu>
M: C
L: 1/8
K: Em
G>A |\
B2E2 E2A>G | F>GE>F D2d>e |\
f>ed>B (d<B)A>F | B2E2E2 :|\
F>E |\
D2d2 d2B>^c | d>ed>B A2d>^c |
B2e2 e2e>f | g>fe>d B2d>e |\
f2 (3agf e2 (3gfe | d>ed>B A2d>e |\
f>ed>B (d<B)A>F | B2E2E2 |]
